!!!!SEGMENT: pl-sa--377-a-viii-17--008_anonim--nieba-krolowa.krn
!!!cenid: 17xx:1730
!!!COM: Anonim
!!!COM-rismID: pe30004985
!!!CDT:
!!!CNT:
!!!OTL: Nieba królowa
!!!PDT:
!!!AGN: Sacred
!!!SMS-siglum: PL-SA
!!!SMS-shelfmark: 377/A VIII 17
!!!SMS-shelfwork: 008 W
!!!SMS-variant:
!!!SMS-altvar:
!!!NIFC-rismSourceID: 1001077388
!!!NIFC-islandoraID:
!!!URL-pdf-islandora:
!!!URL-scan: https://bc.bdsandomierz.pl/dlibra/publication/1681/edition/1649/content @EN{Scan on Cyfrowa Biblioteka Diecezjalna w Sandomierzu} @PL{Skany w portalu Cyfrowa Biblioteka Diecezjalna w Sandomierzu}
!!!ONB-nifc: UWAGA: str. 9
!!!AIN: 1 soprn
!!!key:
**kern	**text	**text	**text	**text	**text
*I"Canto.	*	*	*	*	*
*I'S	*	*	*	*	*
*Isoprn	*	*	*	*	*
*ICvox	*	*	*	*	*
*clefC1	*	*	*	*	*
*k[]	*	*	*	*	*
*a:	*	*	*	*	*
*M2/2	*	*	*	*	*
*met(c|)	*	*	*	*	*
=1	=1	=1	=1	=1	=1
*2\right	*	*	*	*	*
!!LO:TX:t=P:problem:4,8,16\middle or left:global
4ee\	Nie-	Sa-	Wey-	Sÿ-	Do-
8dd\	-ba	-ma	-zryi	-na	-brze
8ee\	kro-	Na-	o-	Bo-	o
4cc\	-lo-	-tu-	-czy-	-ſkie-	dob-
4b\	-wa	-ra	-ma	-go	-rze
=2	=2	=2	=2	=2	=2
4.a\	Ma-	Je-	na	Mat-	ze
8b\	-ry-	-mu	nas	-ki	za-
8cc\L	-a	się	Pan-	to-	-ra-
8dd\J	.	.	.	.	.
4ee\	wy-	dzi-	-no	-bie	-zli-
=3	=3	=3	=3	=3	=3
2ddT\	-bra-	-wi-	Swy-	da-	-we-
2cc\	-na.	-ła,	-mi,	-ne,	-mi,
=4	=4	=4	=4	=4	=4
8r	.	.	.	.	.
8g/	Dwu-	kie-	Przy-	I	Smok
8a\	-naſ-	-dyś	-czyń	o-	pier-
8b\	-tą	ta-	się	-raz	-wo-
4cc\	go-	-kie-	uſ-	I-	-ro-
4b\	-dnie	-go	-tÿ	-mię	-dnÿ
=5	=5	=5	=5	=5	=5
4.a\	U-	Sy-	do	Pan-	nie
8g/	-ko-	-na	Sy-	-nÿ	tchnął
4f/	-ro-	po-	-na	za-	uſ-
4e/	-no-	-ro-	ſwię-	-cho-	-ty
=6	=6	=6	=6	=6	=6
2d/	-wa-	-dzi-	-te-	-wa-	Swe-
2c/	-na	-ła	-mi	-ne	-mi
!!LO:LB:g=original
=7||	=7||	=7||	=7||	=7||	=7||
4g\	Har-	Kto-	A	Ja-	A-
8cc\	-to-	-rÿ	ob-	-ko	-ni
8b\	-wa-	Twym	-ron-	dwie	cię
4a\	-nÿ-	Oÿ-	-ne-	go-	za-
4a\	-mi	-cem	-mi	-rÿ	-pach
=8	=8	=8	=8	=8	=8
4.b\	do	ieſt	Swo-	te	nie
8dd\	ko-	z da-	-ie-	wÿ-	za-
4cc\	-ła	-wneÿ	-mi	-so-	-le-
4b\	Gwia-	o-	rę-	-kie	-ciał
=9	=9	=9	=9	=9	=9
(8a\L	-zda-	-pie-	-ka-	dwo-	złe-
16b\L	.	.	.	.	.
16cc\JJ)	.	.	.	.	.
4a\	.	.	.	.	.
2g/	-mi	-ki	-mi	-ie.	-go.
=10	=10	=10	=10	=10	=10
4r	.	.	.	.	.
4g/	ia-	ie-	Staw	poch-	Jabł-
8a/L	-ko	-ſzcze	się	-wa-	-ka
8g/J	.	.	.	.	.
8f/L	per-	przed	za	-łÿ	Ray-
8e/J	.	.	.	.	.
=11	=11	=11	=11	=11	=11
2dT/	-ła-	wie-	na-	two-	-ſkie-
2c/	-mi.	-ki	-mi	-ie	-go.
==	==	==	==	==	==
*-	*-	*-	*-	*-	*-
!!!system-decoration: [(s1)]
!!!ENC: Katarzyna Serwa
!!!END: 2021-12-30
!!!ENC: Andrzej Gręziak
!!!END: 2021-01-11
